src/lib/packages/icons/src/assets/line/nut.svg

<svg width="24" height="24" viewBox="0 0 24 24" fill="none" xmlns="http://www.w3.org/2000/svg">
<path d="M12 8.24999C9.932 8.24999 8.25 9.93199 8.25 12C8.25 14.068 9.932 15.75 12 15.75C14.068 15.75 15.75 14.068 15.75 12C15.75 9.93199 14.068 8.24999 12 8.24999ZM12 14.25C10.759 14.25 9.75 13.241 9.75 12C9.75 10.759 10.759 9.74999 12 9.74999C13.241 9.74999 14.25 10.759 14.25 12C14.25 13.241 13.241 14.25 12 14.25ZM19.223 6.182L13.723 2.74398C12.676 2.08998 11.325 2.08998 10.278 2.74398L4.778 6.182C3.821 6.78 3.25101 7.80998 3.25101 8.93798V15.062C3.25101 16.19 3.822 17.22 4.778 17.818L10.278 21.256C10.801 21.583 11.401 21.746 12.001 21.746C12.601 21.746 13.2 21.582 13.724 21.256L19.224 17.818C20.181 17.22 20.751 16.19 20.751 15.062V8.93798C20.75 7.80998 20.179 6.78 19.223 6.182ZM19.25 15.062C19.25 15.669 18.942 16.224 18.428 16.546L12.928 19.984C12.365 20.336 11.636 20.336 11.073 19.984L5.573 16.546C5.058 16.224 4.75101 15.67 4.75101 15.062V8.93798C4.75101 8.33098 5.059 7.776 5.573 7.454L11.073 4.01598C11.355 3.83998 11.678 3.75201 12.001 3.75201C12.324 3.75201 12.647 3.83998 12.929 4.01598L18.429 7.454C18.944 7.776 19.251 8.32998 19.251 8.93798V15.062H19.25Z" fill="currentColor"/>
</svg>

<svg xmlns="http://www.w3.org/2000/svg" width="24" height="24" fill="none"><path fill="currentColor" d="M12 8.25A3.754 3.754 0 0 0 8.25 12 3.754 3.754 0 0 0 12 15.75 3.754 3.754 0 0 0 15.75 12 3.754 3.754 0 0 0 12 8.25Zm0 6A2.252 2.252 0 0 1 9.75 12 2.252 2.252 0 0 1 12 9.75 2.252 2.252 0 0 1 14.25 12 2.252 2.252 0 0 1 12 14.25Zm7.223-8.068-5.5-3.438a3.27 3.27 0 0 0-3.445 0l-5.5 3.438a3.23 3.23 0 0 0-1.527 2.756v6.124c0 1.128.571 2.158 1.527 2.756l5.5 3.438a3.25 3.25 0 0 0 1.723.49c.6 0 1.199-.164 1.723-.49l5.5-3.438a3.23 3.23 0 0 0 1.527-2.756V8.938a3.235 3.235 0 0 0-1.528-2.756Zm.027 8.88c0 .607-.308 1.162-.822 1.484l-5.5 3.438a1.761 1.761 0 0 1-1.855 0l-5.5-3.438a1.739 1.739 0 0 1-.822-1.484V8.938c0-.607.308-1.162.822-1.484l5.5-3.438c.282-.176.605-.264.928-.264.323 0 .646.088.928.264l5.5 3.438c.515.322.822.876.822 1.484v6.124h-.001Z"/></svg>
